X:1
T:The Two Sisters
M:2/2
L:1/4
K:C
 G G/2A/2 B A| B d d2| d e G2| A G E2| D G/2A/2 B A| B d e3/2 d/2|\
 g ge/2-d/2 B| e3 z| e e/2e/2 ge/2-d/2|
M:3/2
 d e G3 A|
M:2/2
 B A G D| G A E2| D E G G|
M:3/2
 G g e3 e|
M:2/2
 d3/2| G/2 B A| G3 z|||
